lib/flags/m/TUN.svg

<svg xmlns="http://www.w3.org/2000/svg" fill="none" viewBox="0 0 20 15"><mask id="TUN_svg__a" width="20" height="15" x="0" y="0" mask-type="alpha" maskUnits="userSpaceOnUse"><path fill="#fff" d="M0 0H20V15H0z"/></mask><g mask="url(#TUN_svg__a)"><path fill="#E31D1C" fill-rule="evenodd" d="M0 0V15H20V0H0Z" clip-rule="evenodd"/><mask id="TUN_svg__b" width="20" height="15" x="0" y="0" mask-type="alpha" maskUnits="userSpaceOnUse"><path fill="#fff" fill-rule="evenodd" d="M0 0V15H20V0H0Z" clip-rule="evenodd"/></mask><g fill-rule="evenodd" clip-rule="evenodd" mask="url(#TUN_svg__b)"><path fill="#F7FCFF" d="M10 12.5C12.7614 12.5 15 10.2614 15 7.5C15 4.73858 12.7614 2.5 10 2.5C7.23858 2.5 5 4.73858 5 7.5C5 10.2614 7.23858 12.5 10 12.5Z"/><path fill="#E31D1C" d="M10.8767 11.0317C10.8767 11.0317 8.24146 10.3128 8.24146 7.48341C8.24146 4.65404 10.8767 3.87346 10.8767 3.87346C9.78701 3.45171 6.59803 4.09882 6.59803 7.48341C6.59803 10.868 9.87597 11.4775 10.8767 11.0317ZM10.7316 6.86772L9.4242 7.34542L10.8294 7.83661L10.8767 9.15219L11.7319 8.13014L13.1419 8.23023L12.126 7.40139L12.7378 6.20445L11.5427 6.60673L10.7147 5.57178L10.7316 6.86772Z"/></g></g></svg>

<svg xmlns="http://www.w3.org/2000/svg" fill="none" viewBox="0 0 20 15"><mask id="TUN_svg__a" width="20" height="15" x="0" y="0" maskUnits="userSpaceOnUse"><path fill="#fff" d="M0 0h20v15H0z"/></mask><g mask="url(#TUN_svg__a)"><path fill="#E31D1C" fill-rule="evenodd" d="M0 0v15h20V0H0z" clip-rule="evenodd"/><mask id="TUN_svg__b" width="20" height="15" x="0" y="0" maskUnits="userSpaceOnUse"><path fill="#fff" fill-rule="evenodd" d="M0 0v15h20V0H0z" clip-rule="evenodd"/></mask><g fill-rule="evenodd" clip-rule="evenodd" mask="url(#TUN_svg__b)"><path fill="#F7FCFF" d="M10 12.5a5 5 0 100-10 5 5 0 000 10z"/><path fill="#E31D1C" d="M10.877 11.032s-2.636-.72-2.636-3.549c0-2.829 2.636-3.61 2.636-3.61-1.09-.421-4.279.226-4.279 3.61 0 3.385 3.278 3.994 4.279 3.549zm-.145-4.164l-1.308.477 1.405.492.048 1.315.855-1.022 1.41.1-1.016-.829.612-1.197-1.195.403-.828-1.035.017 1.296z"/></g></g></svg>
